app/client/src/assets/icons/blueprintjs/16px/barcode.svg

<svg xmlns="http://www.w3.org/2000/svg" xml:space="preserve" viewBox="0 0 16 16"><path fill-rule="evenodd" d="M0 14h2V2H0v12zm6 0h1V2H6v12zm2 0h1V2H8v12zm-5 0h2V2H3v12zM15 2v12h1V2h-1zm-5 12h1V2h-1v12zm2 0h2V2h-2v12z" clip-rule="evenodd"/></svg>

<?xml version="1.0" encoding="utf-8"?>
<!-- Generator: Adobe Illustrator 17.1.0, SVG Export Plug-In . SVG Version: 6.00 Build 0)  -->
<!DOCTYPE svg PUBLIC "-//W3C//DTD SVG 1.1//EN" "http://www.w3.org/Graphics/SVG/1.1/DTD/svg11.dtd">
<svg version="1.1" id="Layer_1" xmlns="http://www.w3.org/2000/svg" xmlns:xlink="http://www.w3.org/1999/xlink" x="0px" y="0px"
	 viewBox="0 0 16 16" enable-background="new 0 0 16 16" xml:space="preserve">
<g id="barcode_1_">
	<g>
		<path fill-rule="evenodd" clip-rule="evenodd" d="M0,14h2V2H0V14z M6,14h1V2H6V14z M8,14h1V2H8V14z M3,14h2V2H3V14z M15,2v12h1V2
			H15z M10,14h1V2h-1V14z M12,14h2V2h-2V14z"/>
	</g>
</g>
</svg>
